common/src/main/resources/icons/nodes/pluginUpdate.svg

<svg xmlns="http://www.w3.org/2000/svg" width="16" height="16" data-big="true" viewBox="0 0 24 24"><path fill="#3F51B5" d="M20.5 11H19V7a2 2 0 0 0-2-2h-4V3.5A2.5 2.5 0 0 0 10.5 1 2.5 2.5 0 0 0 8 3.5V5H4a2 2 0 0 0-2 2v3.8h1.5c1.5 0 2.7 1.2 2.7 2.7S5 16.2 3.5 16.2H2V20a2 2 0 0 0 2 2h3.8v-1.5c0-1.5 1.2-2.7 2.7-2.7s2.7 1.2 2.7 2.7V22H17a2 2 0 0 0 2-2v-4h1.5a2.5 2.5 0 0 0 2.5-2.5 2.5 2.5 0 0 0-2.5-2.5"/><path fill="#00E676" d="M7 22H5v-4.5l-1.75 1.75-1.21-1.21L6 14.08l3.96 3.96-1.21 1.21L7 17.5z"/></svg>

<!--
  - The MIT License (MIT)
  -
  - Copyright (c) 2015-2024 Elior "Mallowigi" Boukhobza
  -
  - Permission is hereby granted, free of charge, to any person obtaining a copy
  - of this software and associated documentation files (the "Software"), to deal
  - in the Software without restriction, including without limitation the rights
  - to use, copy, modify, merge, publish, distribute, sublicense, and/or sell
  - copies of the Software, and to permit persons to whom the Software is
  - furnished to do so, subject to the following conditions:
  -
  - The above copyright notice and this permission notice shall be included in all
  - copies or substantial portions of the Software.
  -
  - THE SOFTWARE IS PROVIDED "AS IS", WITHOUT WARRANTY OF ANY KIND, EXPRESS OR
  - IMPLIED, INCLUDING BUT NOT LIMITED TO THE WARRANTIES OF MERCHANTABILITY,
  - FITNESS FOR A PARTICULAR PURPOSE AND NONINFRINGEMENT. IN NO EVENT SHALL THE
  - AUTHORS OR COPYRIGHT HOLDERS BE LIABLE FOR ANY CLAIM, DAMAGES OR OTHER
  - LIABILITY, WHETHER IN AN ACTION OF CONTRACT, TORT OR OTHERWISE, ARISING FROM,
  - OUT OF OR IN CONNECTION WITH THE SOFTWARE OR THE USE OR OTHER DEALINGS IN THE
  - SOFTWARE.
  -->


<svg data-big="true" xmlns="http://www.w3.org/2000/svg" version="1.1" width="16px" height="16px" viewBox="0 0 24 24">
  <path fill="#3F51B5"
        d="M20.5,11H19V7C19,5.89 18.1,5 17,5H13V3.5A2.5,2.5 0 0,0 10.5,1A2.5,2.5 0 0,0 8,3.5V5H4A2,2 0 0,0 2,7V10.8H3.5C5,10.8 6.2,12 6.2,13.5C6.2,15 5,16.2 3.5,16.2H2V20A2,2 0 0,0 4,22H7.8V20.5C7.8,19 9,17.8 10.5,17.8C12,17.8 13.2,19 13.2,20.5V22H17A2,2 0 0,0 19,20V16H20.5A2.5,2.5 0 0,0 23,13.5A2.5,2.5 0 0,0 20.5,11Z"/>
  <path fill="#00E676" transform="scale(.5) translate(0 24)"
        d="M14,20H10V11L6.5,14.5L4.08,12.08L12,4.16L19.92,12.08L17.5,14.5L14,11V20Z"/>
</svg>
